X:1
T:MacDonald's March
R:reel
D:J.P. & Joe Cormier
Z:Paul Stewart Cranford (P.S.C.), <http://www.cranfordpub.com>
L:1/8
Q:333
M:C|
K:Amix
z2|c2 Bc A/A/A A2|cAce a2 ef|gfga g2 de|gedB GABd|
c2 Bc A/A/A A2|cAce a2 ef|gedB GABd|c2 A2 A2 :|
z2|:Acea ge a2|efge a2 ef|gfga g2 de|[1gedB GABG|
Acea ge a2|efge a2 ef|gedB GABd|c2 A2 A2 z2:|
[2gedB GABd|c2 Bc A/A/A A2|cAce a2 ef|gedB GABd|c2 A2 A2||
|:E2|ABcd eaec|ABcd eaec|GABc dcdB|GABc d2 cB|
ABcd eaec|efge a2 ef|gedB GABd|c2 A2 A2 :|
